Sources/FrostedUI/Resources/Icons.xcassets/hourGlass20.imageset/hour-glass-20.svg

<svg width="20" height="20" viewBox="0 0 20 20" fill="none" xmlns="http://www.w3.org/2000/svg" data-fui-icon="true">
  <path
    d="M15.0002 1.25C15.9564 1.25013 16.7828 2.04047 16.717 3.05273C16.6186 4.56765 16.3053 5.69303 15.8586 6.55957C15.409 7.43193 14.8456 8.00097 14.3147 8.42773C14.056 8.63573 13.8008 8.81334 13.5901 8.96191C13.3694 9.11752 13.2031 9.23722 13.0696 9.35742C12.8381 9.56582 12.7502 9.72627 12.7502 10C12.7502 10.2737 12.8381 10.4342 13.0696 10.6426C13.2031 10.7628 13.3694 10.8825 13.5901 11.0381C13.8008 11.1867 14.056 11.3643 14.3147 11.5723C14.8456 11.999 15.409 12.5681 15.8586 13.4404C16.3053 14.307 16.6186 15.4323 16.717 16.9473C16.7828 17.9595 15.9564 18.7499 15.0002 18.75H5.00024C4.04402 18.75 3.21769 17.9596 3.28345 16.9473C3.38185 15.4323 3.69519 14.307 4.14185 13.4404C4.59155 12.568 5.15492 11.999 5.68579 11.5723C5.94455 11.3643 6.19968 11.1867 6.4104 11.0381C6.63109 10.8825 6.79736 10.7628 6.93091 10.6426C7.16231 10.4342 7.25024 10.2737 7.25024 10C7.25024 9.72632 7.16231 9.56577 6.93091 9.35742C6.79736 9.23721 6.63109 9.11751 6.4104 8.96191C6.19968 8.81334 5.94455 8.63573 5.68579 8.42773C5.15492 8.00097 4.59155 7.43195 4.14185 6.55957C3.69519 5.69302 3.38185 4.5677 3.28345 3.05273C3.21769 2.04038 4.04402 1.25 5.00024 1.25H15.0002ZM5.00024 2.75C4.85216 2.75 4.77401 2.86525 4.77954 2.95508C4.86767 4.31192 5.14336 5.22705 5.47583 5.87207C5.80515 6.51086 6.21073 6.92555 6.62524 7.25879C6.83907 7.43066 7.0511 7.57774 7.27466 7.73535C7.4883 7.88598 7.72552 8.05475 7.93481 8.24316C8.38896 8.65216 8.75024 9.19045 8.75024 10C8.75024 10.8096 8.38896 11.3478 7.93481 11.7568C7.72552 11.9452 7.4883 12.114 7.27466 12.2646C7.0511 12.4223 6.83907 12.5693 6.62524 12.7412C6.21073 13.0745 5.80515 13.4891 5.47583 14.1279C5.14336 14.773 4.86767 15.6881 4.77954 17.0449C4.77401 17.1348 4.85216 17.25 5.00024 17.25H15.0002C15.1482 17.2499 15.2265 17.1347 15.2209 17.0449C15.1328 15.6881 14.8571 14.7729 14.5247 14.1279C14.1954 13.4892 13.7897 13.0745 13.3752 12.7412C13.1614 12.5693 12.9494 12.4223 12.7258 12.2646C12.5122 12.114 12.275 11.9452 12.0657 11.7568C11.6115 11.3478 11.2502 10.8096 11.2502 10C11.2502 9.19037 11.6115 8.65217 12.0657 8.24316C12.275 8.05475 12.5122 7.88597 12.7258 7.73535C12.9494 7.57774 13.1614 7.43067 13.3752 7.25879C13.7897 6.92555 14.1954 6.51085 14.5247 5.87207C14.8571 5.22705 15.1328 4.31186 15.2209 2.95508C15.2265 2.8653 15.1482 2.75012 15.0002 2.75H5.00024ZM12.9983 4.4375C13.2744 4.4375 13.5039 4.66478 13.4299 4.93066C13.1284 6.01136 11.8944 7.043 10.5491 7.69531C10.2025 7.86332 9.79796 7.86328 9.45142 7.69531C8.106 7.04301 6.87112 6.01142 6.56958 4.93066C6.49569 4.66486 6.72523 4.43753 7.00122 4.4375H12.9983Z"
    fill="currentColor"
  />
</svg>

<svg xmlns="http://www.w3.org/2000/svg" width="20" height="20" fill="none" data-fui-icon="true" viewBox="0 0 20 20"><path fill="currentColor" d="M15 1.25c.956 0 1.783.79 1.717 1.803-.098 1.515-.412 2.64-.858 3.507a5.7 5.7 0 0 1-1.544 1.868c-.259.208-.514.385-.725.534-.22.156-.387.275-.52.395-.232.209-.32.37-.32.643 0 .274.088.434.32.643.133.12.3.24.52.395.21.149.466.326.725.534a5.7 5.7 0 0 1 1.544 1.868c.446.867.76 1.992.858 3.507.066 1.012-.76 1.803-1.717 1.803H5c-.956 0-1.782-.79-1.717-1.803.099-1.515.412-2.64.859-3.507a5.7 5.7 0 0 1 1.544-1.868c.259-.208.514-.385.724-.534.221-.155.387-.275.52-.395.232-.209.32-.37.32-.643 0-.274-.088-.434-.32-.643-.133-.12-.299-.24-.52-.395-.21-.149-.465-.326-.724-.534A5.7 5.7 0 0 1 4.142 6.56c-.447-.867-.76-1.992-.859-3.507C3.218 2.04 4.044 1.25 5 1.25zM5 2.75c-.148 0-.226.115-.22.205.088 1.357.363 2.272.696 2.917.33.639.735 1.054 1.15 1.387.213.172.425.319.649.476.213.151.45.32.66.508.454.41.815.947.815 1.757s-.361 1.348-.815 1.757c-.21.188-.447.357-.66.508-.224.157-.436.304-.65.476-.414.334-.82.748-1.15 1.387-.332.645-.607 1.56-.695 2.917-.006.09.072.205.22.205h10c.148 0 .226-.115.22-.205-.087-1.357-.363-2.272-.695-2.917a4.2 4.2 0 0 0-1.15-1.387c-.214-.172-.426-.319-.65-.476a7 7 0 0 1-.66-.508c-.453-.41-.815-.947-.815-1.757s.361-1.348.816-1.757c.209-.188.446-.357.66-.508.223-.157.435-.304.65-.476.414-.333.82-.748 1.149-1.387.332-.645.608-1.56.696-2.917.005-.09-.073-.205-.22-.205zm7.998 1.688c.276 0 .506.227.432.493-.302 1.08-1.536 2.112-2.88 2.764a1.26 1.26 0 0 1-1.099 0c-1.345-.652-2.58-1.684-2.881-2.764-.074-.266.155-.493.431-.494z"/></svg>
